assets/img/braze_icons/terminal-browser.svg

<svg fill="none" height="24" viewBox="0 0 24 24" width="24" xmlns="http://www.w3.org/2000/svg"><g fill="#801ed7"><path d="m6.7587 2h10.4826c.8049-.00001 1.4694-.00002 2.0105.0442.5621.04592 1.0788.14449 1.5642.39178.7526.38349 1.3645.99541 1.748 1.74806.2473.48534.3459 1.00204.3918 1.56414.0177.21691.0289.4343.0358.65193.0172.54208.0258.81314-.0806 1.03396-.0916.19025-.2511.35491-.4384.45257-.2173.11336-.5024.11336-1.0726.11336h-18.8c-.57018 0-.85528 0-1.07261-.11336-.18724-.09766-.34676-.26232-.43842-.45257-.106405-.22082-.097793-.49187-.08057-1.03396.00691-.21763.01807-.43502.0358-.65193.04592-.5621.14449-1.07881.39178-1.56414.38349-.75265.99541-1.36457 1.74806-1.74806.48534-.2473 1.00204-.34586 1.56414-.39178.54119-.04422 1.20557-.04421 2.01052-.0442z"/><path clip-rule="evenodd" d="m23 11.6v4.6413c0 .805 0 1.4693-.0442 2.0105-.0459.5621-.1445 1.0788-.3918 1.5642-.3835.7526-.9954 1.3645-1.748 1.748-.4854.2473-1.0021.3459-1.5642.3918-.5412.0442-1.2056.0442-2.0106.0442h-10.48243c-.805 0-1.46938 0-2.01059-.0442-.5621-.0459-1.0788-.1445-1.56414-.3918-.75265-.3835-1.36457-.9954-1.74806-1.748-.24729-.4854-.34586-1.0021-.39178-1.5642-.04422-.5412-.04421-1.2055-.0442-2.0105v-4.6413c0-.5601 0-.8401.109-1.054.09587-.1882.24885-.3411.43701-.437.21391-.109.49394-.109 1.05399-.109h18.8c.5601 0 .8401 0 1.054.109.1882.0959.3411.2488.437.437.109.2139.109.494.109 1.054zm-16.29289.6929c-.39053-.3905-1.02369-.3905-1.41422 0-.39052.3905-.39052 1.0237 0 1.4142l1.7929 1.7929-1.7929 1.7929c-.39052.3905-.39052 1.0237 0 1.4142.39053.3905 1.02369.3905 1.41422 0l2.5-2.5c.39052-.3905.39052-1.0237 0-1.4142zm4.29289 4.7071c-.5523 0-1 .4477-1 1s.4477 1 1 1h4c.5523 0 1-.4477 1-1s-.4477-1-1-1z" fill-rule="evenodd"/></g></svg>

<svg width="24" height="24" viewBox="0 0 24 24" fill="none" xmlns="http://www.w3.org/2000/svg">
<path d="M6.7587 2H17.2413C18.0462 1.99999 18.7107 1.99998 19.2518 2.0442C19.8139 2.09012 20.3306 2.18869 20.816 2.43598C21.5686 2.81947 22.1805 3.43139 22.564 4.18404C22.8113 4.66938 22.9099 5.18608 22.9558 5.74818C22.9735 5.96509 22.9847 6.18248 22.9916 6.40011C23.0088 6.94219 23.0174 7.21325 22.911 7.43407C22.8194 7.62432 22.6599 7.78898 22.4726 7.88664C22.2553 8 21.9702 8 21.4 8H2.6C2.02982 8 1.74472 8 1.52739 7.88664C1.34015 7.78898 1.18063 7.62432 1.08897 7.43407C0.982565 7.21325 0.991177 6.9422 1.0084 6.40011C1.01531 6.18248 1.02647 5.96509 1.0442 5.74818C1.09012 5.18608 1.18869 4.66937 1.43598 4.18404C1.81947 3.43139 2.43139 2.81947 3.18404 2.43598C3.66938 2.18868 4.18608 2.09012 4.74818 2.0442C5.28937 1.99998 5.95375 1.99999 6.7587 2Z" fill="#801ED7"/>
<path fill-rule="evenodd" clip-rule="evenodd" d="M23 11.6V16.2413C23 17.0463 23 17.7106 22.9558 18.2518C22.9099 18.8139 22.8113 19.3306 22.564 19.816C22.1805 20.5686 21.5686 21.1805 20.816 21.564C20.3306 21.8113 19.8139 21.9099 19.2518 21.9558C18.7106 22 18.0462 22 17.2412 22L6.75877 22C5.95377 22 5.28939 22 4.74818 21.9558C4.18608 21.9099 3.66938 21.8113 3.18404 21.564C2.43139 21.1805 1.81947 20.5686 1.43598 19.816C1.18869 19.3306 1.09012 18.8139 1.0442 18.2518C0.99998 17.7106 0.99999 17.0463 1 16.2413V11.6C1 11.0399 1 10.7599 1.109 10.546C1.20487 10.3578 1.35785 10.2049 1.54601 10.109C1.75992 10 2.03995 10 2.6 10H21.4C21.9601 10 22.2401 10 22.454 10.109C22.6422 10.2049 22.7951 10.3578 22.891 10.546C23 10.7599 23 11.04 23 11.6ZM6.70711 12.2929C6.31658 11.9024 5.68342 11.9024 5.29289 12.2929C4.90237 12.6834 4.90237 13.3166 5.29289 13.7071L7.08579 15.5L5.29289 17.2929C4.90237 17.6834 4.90237 18.3166 5.29289 18.7071C5.68342 19.0976 6.31658 19.0976 6.70711 18.7071L9.20711 16.2071C9.59763 15.8166 9.59763 15.1834 9.20711 14.7929L6.70711 12.2929ZM11 17C10.4477 17 10 17.4477 10 18C10 18.5523 10.4477 19 11 19H15C15.5523 19 16 18.5523 16 18C16 17.4477 15.5523 17 15 17H11Z" fill="#801ED7"/>
</svg>
